X:183 
T:Never Grow Old
B:WSGM.249
F:file ID wsgm/183ngo
S:F.O'Neill
Z:Kinder/Black
N:Sounds very Scots but the Chief gives no information 
about it.
M:4/4
L:1/8
%Q:180
R:reel
K:D
"reel"
A|FDAF d2 dA|d2 df eEEA|1 FDAF d2 dB|cdeg fdd:|
[2 FDAF dABG|FAdg fdd||g|fede fgaf|gfed cAeg|
fede fgaf|ecdB Addg|fdfg fgaf|gfed cAeg|
fdgb afge|fdec d4|]

